X:1
T:Title
%%score 1 2
L:1/8
Q:1/4=87
M:4/4
K:Eb
V:1 treble nm="Grand Piano, Soprano"
V:2 bass nm="Choir Pad, Bass"
V:1
 E[EF] [EG]<[EG] [EG][EG] [GB]<[EG] | [B,F]>[B,E] [EG]6 | E[EF][EG][EA] [EB][Ec][EB][GB] | %3
w: By~Daniel~Brink~Towner * * * * * * *|||
 [FA]>[EG] [DF]6 | [DF][EG][FA][FA] [FA]>[GB] [FA]2 | [EG][DF][EG][FA] [GB]>[Ac] [GB]2 | %6
w: |||
 [GB][GB] [Ge]>[Ae] [Be][Ac][GB][EG] | [DF]>E E6 | [EG][FA] [GB]<[EG] [B,F]>[B,E] [EG]2 | %9
w: |||
 [EG][FA] [GB]<[EG] [B,F]>[B,E] [EG]2 | [EG][FA][GB][Ge] [Ae][Ac] [GB]<[EG] | [EF]>E [DF]6 | %12
w: |||
 [EG][FA] [GB]>[EG] [B,F][B,E] [EG]2 | [EG][FA] [GB]>[EG] [B,F][B,E] [EG]2 | %14
w: ||
 [GB][GB] [Ge]>[Ae] [Be][Ac][GB][EG] | [DF]>E E6- | E2 z2 z4 |] %17
w: |||
V:2
 [E,G,][E,A,] [E,B,]<[E,B,] [E,B,][E,B,] [E,E]<[E,B,] | [E,A,]>[E,G,] [E,B,]6 | %2
 [E,G,][E,A,][E,B,][E,E] [G,E][A,E][G,E][E,E] | [D,B,]>[E,B,] [B,,B,]6 | %4
 [B,,B,][B,,B,][B,,B,][B,,B,] [B,,B,]>[B,,B,] [B,,B,]2 | %5
 [B,,B,][B,,B,][E,B,][E,E] [E,E]>[E,E] [E,E]2 | [E,E][E,E] [E,B,]>[F,B,] [G,B,][A,E][B,E]B, | %7
 [B,,A,]>[E,G,] [E,G,]6 | [E,B,][E,B,] [E,E]<[E,B,] [E,A,]>[E,G,] [E,B,]2 | %9
 [E,B,][E,B,] [E,E]<[E,B,] [E,A,]>[E,G,] [E,B,]2 | %10
 [E,B,][E,B,][E,E][E,B,] [A,C][A,E] [E,E]<[E,B,] | [C,=A,]>[C,A,] [B,,B,]6 | %12
 [E,B,][E,B,] [E,E]>[E,B,] [E,A,][E,G,] [E,B,]2 | [E,B,][E,B,] [E,E]>[E,B,] [E,A,][E,G,] [E,B,]2 | %14
 [E,E][E,E] [E,B,]>[F,B,] [G,B,][A,E][B,E]B, | [B,,A,]>[E,G,] [E,G,]6- | [E,G,]2 z2 z4 |] %17

